X: 27886
T: Mountain Dew
R: reel
M: 4/4
K: Dmajor
B2EB GBEB|BEGB ADFA|B2EB GBEg|gedB ADFA|
B2EB GBEB|BEGB ADFA|B2EB GBEg|gedB ADFA||
B2eg fded|B2eg fddA|B2eg fded|(3Bcd AG FDDA|
B2eg fded|B2eg fddc|dfaf gfed|(3BcB AF BEE2||

